src/assets/hop-icon.svg

<svg width="25" height="25" viewBox="0 0 25 25" fill="none" xmlns="http://www.w3.org/2000/svg">
<path d="M18.3527 6.0548C17.5616 5.36099 16.6258 4.85215 15.6134 4.56525C14.6011 4.27835 13.5375 4.22061 12.5 4.39621C11.4625 4.22061 10.3989 4.27835 9.3865 4.56525C8.37411 4.85215 7.43836 5.36099 6.64724 6.0548C5.09411 7.52277 3.93982 10.0954 4.39841 12.0353C4.68661 12.1184 4.98279 12.1707 5.282 12.1915C5.05448 13.0123 5.00267 13.8718 5.12995 14.7139C5.25723 15.556 5.56075 16.3618 6.02068 17.0786C6.38278 17.0295 6.73927 16.9454 7.08513 16.8275C7.3585 18.3502 8.11986 19.7427 9.25427 20.7946C9.49238 20.6399 9.7189 20.4679 9.932 20.2802C10.3107 21.744 11.2278 23.0111 12.5 23.8282C13.7723 23.0109 14.6894 21.7435 15.0679 20.2794L15.0718 20.2704C15.2883 20.4615 15.5187 20.6361 15.7613 20.7927C16.8911 19.7398 17.6482 18.3483 17.9187 16.8279C18.2634 16.945 18.6185 17.0288 18.9793 17.0779C19.4392 16.361 19.7427 15.5552 19.87 14.7131C19.9973 13.871 19.9455 13.0115 19.7179 12.1907C20.0172 12.17 20.3133 12.1176 20.6015 12.0345C21.0601 10.0958 19.9058 7.52316 18.3527 6.0548Z" fill="#F2C247"/>
<path d="M12.5 24.2186C12.4265 24.2187 12.3544 24.198 12.2922 24.1589C10.9339 23.2915 9.95538 21.9409 9.55429 20.38C9.52751 20.2798 9.5416 20.1732 9.59346 20.0834C9.64533 19.9937 9.73072 19.9282 9.83085 19.9015C9.93098 19.8747 10.0376 19.8888 10.1274 19.9406C10.2171 19.9925 10.2826 20.0779 10.3094 20.178C10.6396 21.4645 11.416 22.5919 12.5 23.3593C13.1625 22.8927 13.7136 22.2855 14.1141 21.5811C14.1395 21.5366 14.1736 21.4975 14.2142 21.4662C14.2548 21.4348 14.3011 21.4117 14.3506 21.3983C14.4002 21.3848 14.4518 21.3812 14.5027 21.3877C14.5536 21.3943 14.6027 21.4107 14.6473 21.4362C14.6918 21.4617 14.7309 21.4957 14.7622 21.5363C14.7936 21.5769 14.8167 21.6233 14.8301 21.6728C14.8436 21.7223 14.8472 21.774 14.8407 21.8249C14.8341 21.8758 14.8177 21.9249 14.7922 21.9694C14.2866 22.858 13.5709 23.6091 12.7078 24.1569C12.6457 24.1967 12.5737 24.2181 12.5 24.2186Z" fill="#141414"/>
<path d="M9.25428 21.1844C9.15975 21.1844 9.06843 21.1501 8.99725 21.0879C7.79843 19.9793 6.99302 18.5107 6.70272 16.9039C6.682 16.8024 6.70246 16.6968 6.7596 16.6103C6.81674 16.5239 6.90588 16.4637 7.0074 16.443C7.10893 16.4222 7.21453 16.4427 7.30098 16.4998C7.38742 16.557 7.44762 16.6461 7.46834 16.7476C7.71213 18.0835 8.34608 19.3173 9.29022 20.2933C9.41912 20.1988 9.54764 20.0953 9.67459 19.9844C10.3557 19.3716 10.9069 18.6284 11.2957 17.7988C11.3159 17.7496 11.3459 17.705 11.384 17.6678C11.422 17.6306 11.4673 17.6016 11.5169 17.5825C11.5666 17.5634 11.6196 17.5546 11.6728 17.5568C11.726 17.5589 11.7781 17.5719 11.8261 17.5949C11.8741 17.618 11.9168 17.6505 11.9518 17.6907C11.9867 17.7308 12.013 17.7777 12.0292 17.8284C12.0454 17.8791 12.051 17.9325 12.0458 17.9855C12.0406 18.0384 12.0246 18.0898 11.9988 18.1363C11.5644 19.0611 10.9487 19.8893 10.1883 20.5719C9.96083 20.7724 9.7189 20.9558 9.46444 21.1207C9.40191 21.1616 9.32898 21.1837 9.25428 21.1844Z" fill="#141414"/>
<path d="M6.02068 17.4682C5.95605 17.4682 5.89242 17.4522 5.83549 17.4216C5.77857 17.391 5.73013 17.3467 5.69451 17.2928C5.20353 16.5303 4.87931 15.6726 4.74312 14.7759C4.60693 13.8793 4.66185 12.964 4.90428 12.0901C4.9309 11.9899 4.99621 11.9045 5.08584 11.8525C5.17547 11.8005 5.28208 11.7863 5.38221 11.8129C5.48234 11.8396 5.56779 11.9049 5.61976 11.9945C5.67174 12.0841 5.68598 12.1907 5.65936 12.2909C5.45759 13.0181 5.40275 13.7782 5.49806 14.5268C5.59337 15.2754 5.8369 15.9976 6.21443 16.651C6.46726 16.604 6.71635 16.5387 6.95975 16.4557C8.23136 16.0124 9.30875 15.1399 10.0066 13.9881C10.0317 13.941 10.0661 13.8995 10.1078 13.8662C10.1495 13.8329 10.1976 13.8085 10.2491 13.7945C10.3006 13.7805 10.3544 13.7772 10.4073 13.7848C10.4601 13.7924 10.5108 13.8108 10.5563 13.8388C10.6017 13.8667 10.641 13.9037 10.6716 13.9474C10.7022 13.9912 10.7235 14.0407 10.7342 14.093C10.7449 14.1453 10.7448 14.1992 10.7339 14.2514C10.723 14.3037 10.7015 14.3531 10.6707 14.3967C9.87742 15.704 8.65307 16.6936 7.20857 17.1952C6.83876 17.3214 6.45753 17.4114 6.07029 17.4639C6.05387 17.4664 6.0373 17.4678 6.02068 17.4682Z" fill="#141414"/>
<path d="M15.7613 21.1831C15.6865 21.1831 15.6133 21.1617 15.5504 21.1214C15.2912 20.9538 15.0448 20.7673 14.8133 20.5632C13.6382 19.4855 12.8054 18.0865 12.4183 16.5397C12.4035 16.4897 12.3988 16.4371 12.4046 16.3852C12.4105 16.3333 12.4266 16.2831 12.4522 16.2376C12.4777 16.192 12.5122 16.1521 12.5534 16.1201C12.5947 16.0881 12.6419 16.0646 12.6924 16.0512C12.7429 16.0378 12.7955 16.0346 12.8472 16.0419C12.899 16.0492 12.9487 16.0667 12.9935 16.0936C13.0383 16.1204 13.0773 16.1559 13.1081 16.1981C13.139 16.2402 13.161 16.2881 13.173 16.339C13.5204 17.7358 14.2699 19.0001 15.3285 19.9753C15.4593 20.0901 15.5918 20.1964 15.7238 20.2933C16.6638 19.3166 17.2941 18.0838 17.5355 16.7499C17.5562 16.6483 17.6165 16.5591 17.7029 16.502C17.7894 16.4448 17.8951 16.4243 17.9967 16.445C18.0982 16.4657 18.1874 16.526 18.2446 16.6124C18.3018 16.6989 18.3223 16.8046 18.3015 16.9062C18.0136 18.5098 17.2126 19.9766 16.0191 21.0858C15.9478 21.1485 15.8562 21.1831 15.7613 21.1831Z" fill="#141414"/>
<path d="M18.9793 17.4686C18.9619 17.4686 18.9446 17.4674 18.9273 17.4651C18.542 17.4126 18.1626 17.323 17.7945 17.1975C16.3483 16.6965 15.1224 15.7064 14.3285 14.3979C14.2977 14.3543 14.2762 14.3048 14.2653 14.2526C14.2544 14.2004 14.2543 14.1464 14.265 14.0941C14.2757 14.0419 14.297 13.9923 14.3276 13.9486C14.3582 13.9049 14.3975 13.8679 14.4429 13.8399C14.4884 13.812 14.5391 13.7936 14.5919 13.786C14.6448 13.7784 14.6986 13.7817 14.7501 13.7957C14.8016 13.8097 14.8497 13.8341 14.8914 13.8674C14.9331 13.9007 14.9675 13.9422 14.9926 13.9893C15.6913 15.1423 16.7706 16.0153 18.0441 16.4577C18.2864 16.5408 18.5345 16.6061 18.7863 16.653C19.1639 15.9995 19.4074 15.2774 19.5027 14.5288C19.598 13.7801 19.5432 13.02 19.3414 12.2928C19.3282 12.2432 19.3249 12.1915 19.3317 12.1407C19.3385 12.0898 19.3553 12.0408 19.381 11.9964C19.4067 11.9521 19.441 11.9132 19.4817 11.882C19.5225 11.8509 19.569 11.8281 19.6185 11.8149C19.6681 11.8017 19.7198 11.7984 19.7707 11.8052C19.8215 11.812 19.8705 11.8287 19.9149 11.8545C19.9593 11.8802 19.9982 11.9144 20.0293 11.9552C20.0605 11.9959 20.0833 12.0424 20.0965 12.092C20.3386 12.9658 20.3932 13.8808 20.2569 14.7772C20.1206 15.6735 19.7964 16.5309 19.3055 17.2932C19.2699 17.3471 19.2214 17.3914 19.1645 17.422C19.1076 17.4526 19.0439 17.4686 18.9793 17.4686Z" fill="#141414"/>
<path d="M12.5 17.0312C12.4263 17.0313 12.3541 17.0105 12.2918 16.9714C12.1855 16.9042 12.0814 16.8338 11.9793 16.7601C11.1263 16.1394 10.4416 15.3159 9.98708 14.364C9.54402 13.4437 9.31576 12.4349 9.3195 11.4136C9.3195 11.2464 9.32693 11.0812 9.33864 10.9171C9.346 10.8135 9.39421 10.7171 9.47267 10.649C9.55112 10.581 9.6534 10.5469 9.757 10.5542C9.8606 10.5616 9.95704 10.6098 10.0251 10.6882C10.0931 10.7667 10.1272 10.869 10.1199 10.9726C10.1093 11.1183 10.1027 11.2651 10.1027 11.4136C10.0993 12.3169 10.3008 13.2092 10.6922 14.0233C11.0893 14.8577 11.6884 15.5798 12.4351 16.1241L12.5 16.1718L12.5672 16.1241C13.3129 15.5793 13.9111 14.8573 14.3078 14.0233C14.5499 13.52 14.7198 12.9851 14.8125 12.4343C14.821 12.3837 14.8395 12.3353 14.8668 12.2919C14.894 12.2484 14.9296 12.2108 14.9714 12.181C15.0132 12.1513 15.0605 12.1302 15.1105 12.1187C15.1605 12.1073 15.2123 12.1058 15.2629 12.1144C15.3134 12.1229 15.3618 12.1414 15.4053 12.1686C15.4487 12.1959 15.4864 12.2315 15.5161 12.2733C15.5458 12.3151 15.567 12.3624 15.5784 12.4124C15.5899 12.4624 15.5914 12.5142 15.5828 12.5648C15.4776 13.1875 15.2853 13.7924 15.0117 14.3616C14.5586 15.3131 13.8755 16.1366 13.0242 16.7577C12.92 16.8325 12.8144 16.9037 12.7074 16.9714C12.6452 17.0104 12.5734 17.0311 12.5 17.0312Z" fill="#141414"/>
<path d="M5.68086 12.5964C5.53554 12.5964 5.39219 12.5909 5.25117 12.58C4.92475 12.5572 4.60163 12.5003 4.28711 12.41C4.22119 12.3905 4.16159 12.3539 4.11433 12.304C4.06708 12.2541 4.03384 12.1926 4.01797 12.1257C3.50039 9.93816 4.84804 7.21746 6.37851 5.77098C7.21424 5.03144 8.20567 4.48944 9.27934 4.18515C10.353 3.88086 11.4814 3.82208 12.5809 4.01316C12.6808 4.03608 12.7677 4.09737 12.8229 4.1838C12.878 4.27023 12.8969 4.37488 12.8756 4.47517C12.8543 4.57545 12.7944 4.66333 12.7088 4.71984C12.6233 4.77635 12.519 4.79696 12.4184 4.77723C11.4426 4.61505 10.4431 4.67106 9.49154 4.94122C8.54002 5.21138 7.66017 5.689 6.91523 6.33973C5.58125 7.59988 4.4414 9.91199 4.73359 11.7186C4.92433 11.7592 5.11762 11.7868 5.31211 11.8011C6.80278 11.8566 8.27322 11.4423 9.51562 10.6167C9.81106 10.4259 10.0891 10.2094 10.3465 9.96981C10.6565 9.67611 10.9405 9.35617 11.1953 9.01356C11.2575 8.93068 11.35 8.87588 11.4526 8.86123C11.5551 8.84658 11.6593 8.87327 11.7422 8.93543C11.8251 8.99759 11.8799 9.09013 11.8945 9.19269C11.9092 9.29525 11.8825 9.39943 11.8203 9.48231C11.5387 9.86078 11.2251 10.2143 10.8828 10.5389C10.5917 10.8103 10.2772 11.0556 9.94297 11.2718C8.67349 12.1019 7.19725 12.5607 5.68086 12.5964Z" fill="#141414"/>
<path d="M19.3191 12.5964C17.8023 12.5605 16.3258 12.1013 15.0562 11.2706C14.7229 11.0542 14.4092 10.809 14.1187 10.5378C13.2635 9.72396 12.5893 8.73902 12.1402 7.64718C11.9082 7.08851 11.757 6.49966 11.691 5.89836C11.6806 5.79527 11.7116 5.6923 11.7772 5.61208C11.8428 5.53187 11.9375 5.48098 12.0406 5.47062C12.1437 5.46026 12.2467 5.49127 12.3269 5.55684C12.4071 5.6224 12.458 5.71715 12.4683 5.82023C12.5264 6.34726 12.6591 6.86336 12.8625 7.35304C13.2689 8.3416 13.8792 9.23339 14.6535 9.97023C14.9109 10.2099 15.1889 10.4263 15.4843 10.6171C16.7266 11.4426 18.197 11.8568 19.6875 11.8011C19.8821 11.7868 20.0755 11.7593 20.2664 11.7187C20.5586 9.91203 19.4187 7.59992 18.0843 6.33937C17.3396 5.68841 16.4597 5.21064 15.5082 4.94047C14.5566 4.67029 13.557 4.61442 12.5812 4.77687C12.5307 4.78845 12.4784 4.78987 12.4273 4.78104C12.3763 4.77221 12.3275 4.75331 12.2838 4.72544C12.2401 4.69757 12.2024 4.66128 12.1729 4.6187C12.1434 4.57611 12.1226 4.52808 12.1118 4.47739C12.101 4.4267 12.1005 4.37438 12.1101 4.32347C12.1197 4.27255 12.1394 4.22406 12.168 4.18082C12.1965 4.13759 12.2334 4.10047 12.2765 4.07162C12.3195 4.04277 12.3679 4.02278 12.4187 4.01281C13.5182 3.82158 14.6466 3.88029 15.7203 4.18459C16.794 4.48888 17.7854 5.03096 18.6211 5.77062C20.1515 7.21593 21.4992 9.93586 20.9816 12.1253C20.9657 12.1922 20.9325 12.2537 20.8852 12.3037C20.838 12.3536 20.7784 12.3902 20.7125 12.4097C20.398 12.4999 20.0748 12.5569 19.7484 12.5796C19.6093 12.5909 19.4644 12.5964 19.3191 12.5964Z" fill="#141414"/>
<path d="M12.5 4.6873C12.413 4.68721 12.3285 4.65807 12.2599 4.6045C12.1914 4.55093 12.1426 4.476 12.1215 4.3916C12.0369 4.05577 11.9717 3.71536 11.9262 3.37207C11.0613 3.11894 10.1562 2.49042 10.1562 1.17167C10.1562 1.06807 10.1974 0.968717 10.2707 0.895461C10.3439 0.822205 10.4433 0.78105 10.5469 0.78105C10.6505 0.78105 10.7498 0.822205 10.8231 0.895461C10.8963 0.968717 10.9375 1.06807 10.9375 1.17167C10.9293 1.4686 11.0161 1.76038 11.1852 2.00458C11.3543 2.24878 11.5969 2.43267 11.8777 2.52949C11.8666 2.07692 11.9976 1.63226 12.2523 1.258C12.3743 1.10325 12.531 0.979424 12.7098 0.896558C12.8886 0.813691 13.0843 0.774119 13.2812 0.78105C13.4462 0.777803 13.6101 0.808508 13.7627 0.871257C13.9154 0.934006 14.0534 1.02746 14.1684 1.14581C14.2834 1.26417 14.3728 1.4049 14.4312 1.55927C14.4895 1.71363 14.5154 1.87834 14.5074 2.04316C14.5069 2.42044 14.3593 2.78267 14.0961 3.05292C13.9174 3.22564 13.7025 3.35638 13.4669 3.43564C13.2314 3.5149 12.9811 3.54069 12.7344 3.51113C12.7703 3.72871 12.8184 3.95996 12.8789 4.20175C12.9041 4.30224 12.8883 4.40862 12.835 4.49748C12.7818 4.58634 12.6954 4.6504 12.5949 4.67558C12.5639 4.68346 12.532 4.68739 12.5 4.6873ZM12.6563 2.71972C12.7867 2.73417 12.8746 2.73417 12.8906 2.73417C13.0085 2.74117 13.1265 2.72456 13.2379 2.68532C13.3492 2.64608 13.4516 2.585 13.5391 2.50566C13.6592 2.38167 13.7263 2.21579 13.7262 2.04316C13.7316 1.98168 13.7242 1.91974 13.7042 1.86133C13.6843 1.80291 13.6523 1.74933 13.6104 1.70402C13.5685 1.65872 13.5175 1.6227 13.4608 1.59829C13.4041 1.57388 13.343 1.56162 13.2812 1.5623C13.2031 1.55457 13.1243 1.5667 13.0521 1.59757C12.98 1.62843 12.9167 1.67704 12.8684 1.73886C12.6952 2.03494 12.6209 2.37853 12.6563 2.71972Z" fill="#EFEFEF"/>
</svg>

<svg xmlns="http://www.w3.org/2000/svg" width="25" height="25" fill="none" viewBox="0 0 25 25">
    <path fill="#F2C247" d="M18.353 6.055A7.084 7.084 0 0 0 12.5 4.396a7.084 7.084 0 0 0-5.853 1.659c-1.553 1.468-2.707 4.04-2.249 5.98.289.083.585.136.884.156a6.055 6.055 0 0 0 .739 4.888c.362-.05.718-.134 1.064-.252a7.128 7.128 0 0 0 2.17 3.968c.237-.155.464-.327.677-.515a6.004 6.004 0 0 0 2.568 3.548 6.004 6.004 0 0 0 2.568-3.549l.004-.009c.216.192.447.366.69.523a7.126 7.126 0 0 0 2.157-3.965c.344.117.7.2 1.06.25a6.056 6.056 0 0 0 .739-4.887c.3-.021.595-.073.884-.157.458-1.938-.696-4.51-2.25-5.98Z"/>
    <path fill="#141414" d="M12.5 24.219a.39.39 0 0 1-.208-.06 6.363 6.363 0 0 1-2.738-3.779.391.391 0 0 1 .755-.202 5.605 5.605 0 0 0 2.191 3.181 5.5 5.5 0 0 0 1.614-1.778.388.388 0 0 1 .389-.193.393.393 0 0 1 .338.437.392.392 0 0 1-.049.144 6.254 6.254 0 0 1-2.084 2.188.39.39 0 0 1-.208.062Z"/>
    <path fill="#141414" d="M9.254 21.184a.39.39 0 0 1-.257-.096 7.52 7.52 0 0 1-2.294-4.184.39.39 0 0 1 .765-.156 6.875 6.875 0 0 0 1.822 3.545 5.79 5.79 0 0 0 .385-.309 6.85 6.85 0 0 0 1.62-2.185.39.39 0 1 1 .704.337 7.635 7.635 0 0 1-1.81 2.436c-.228.2-.47.384-.725.549a.39.39 0 0 1-.21.063Z"/>
    <path fill="#141414" d="M6.02 17.468a.391.391 0 0 1-.325-.175 6.433 6.433 0 0 1-.79-5.203.39.39 0 1 1 .754.2 5.68 5.68 0 0 0 .555 4.361c.253-.047.502-.112.746-.195a5.791 5.791 0 0 0 3.047-2.468.392.392 0 0 1 .727.263.39.39 0 0 1-.063.146 6.57 6.57 0 0 1-3.462 2.798 6.035 6.035 0 0 1-1.188.273ZM15.761 21.183a.39.39 0 0 1-.21-.062 6.228 6.228 0 0 1-.738-.558 8.141 8.141 0 0 1-2.395-4.023.392.392 0 1 1 .755-.201 7.36 7.36 0 0 0 2.155 3.636c.131.115.264.221.396.318a6.876 6.876 0 0 0 1.811-3.543.39.39 0 1 1 .767.156 7.52 7.52 0 0 1-2.283 4.18.39.39 0 0 1-.258.097Z"/>
    <path fill="#141414" d="M18.98 17.469a.394.394 0 0 1-.053-.004 6.036 6.036 0 0 1-1.133-.267 6.569 6.569 0 0 1-3.466-2.8.39.39 0 1 1 .665-.409 5.79 5.79 0 0 0 3.051 2.469c.242.083.49.148.742.195a5.68 5.68 0 0 0 .555-4.36.39.39 0 1 1 .755-.201 6.434 6.434 0 0 1-.79 5.201.391.391 0 0 1-.327.176Z"/>
    <path fill="#141414" d="M12.5 17.031a.39.39 0 0 1-.208-.06 6.344 6.344 0 0 1-2.305-2.607 6.745 6.745 0 0 1-.648-3.447.392.392 0 0 1 .78.056 5.97 5.97 0 0 0 .572 3.05 5.552 5.552 0 0 0 1.744 2.101l.065.048.067-.048a5.559 5.559 0 0 0 1.74-2.1 5.94 5.94 0 0 0 .505-1.59.388.388 0 0 1 .45-.32.391.391 0 0 1 .32.45 6.739 6.739 0 0 1-.57 1.798 6.34 6.34 0 0 1-1.988 2.396c-.104.075-.21.146-.317.213a.391.391 0 0 1-.207.06Z"/>
    <path fill="#141414" d="M5.68 12.596c-.144 0-.288-.005-.429-.016a4.673 4.673 0 0 1-.964-.17.39.39 0 0 1-.269-.284c-.518-2.188.83-4.909 2.36-6.355a7.438 7.438 0 0 1 6.203-1.758.39.39 0 0 1-.163.764A6.696 6.696 0 0 0 6.915 6.34C5.581 7.6 4.441 9.912 4.734 11.719c.19.04.384.068.578.082a7.117 7.117 0 0 0 4.204-1.184c.295-.191.573-.408.83-.647.31-.294.595-.614.85-.956a.39.39 0 0 1 .624.468 8.21 8.21 0 0 1-.937 1.057 6.772 6.772 0 0 1-.94.733 8.138 8.138 0 0 1-4.262 1.324Z"/>
    <path fill="#141414" d="M19.32 12.596a8.137 8.137 0 0 1-4.264-1.325 6.8 6.8 0 0 1-.937-.733 8.403 8.403 0 0 1-1.979-2.89 6.373 6.373 0 0 1-.449-1.75.39.39 0 1 1 .777-.078c.058.527.191 1.043.395 1.533a7.604 7.604 0 0 0 1.79 2.617c.258.24.536.456.831.647a7.115 7.115 0 0 0 4.204 1.184c.194-.014.388-.042.578-.082.293-1.807-.847-4.12-2.182-5.38a6.692 6.692 0 0 0-5.503-1.562.39.39 0 1 1-.162-.764A7.436 7.436 0 0 1 18.62 5.77c1.53 1.445 2.878 4.165 2.36 6.354a.391.391 0 0 1-.269.285c-.314.09-.637.147-.964.17-.139.01-.284.016-.429.016Z"/>
    <path fill="#EFEFEF" d="M12.5 4.687a.39.39 0 0 1-.379-.295 9.031 9.031 0 0 1-.195-1.02c-.865-.253-1.77-.882-1.77-2.2a.39.39 0 0 1 .781 0 1.395 1.395 0 0 0 .94 1.357c-.01-.452.12-.897.375-1.271a1.254 1.254 0 0 1 1.03-.477 1.204 1.204 0 0 1 1.225 1.262c0 .377-.148.74-.41 1.01a1.673 1.673 0 0 1-1.363.458c.036.218.084.449.145.69a.39.39 0 0 1-.379.486Zm.156-1.967c.13.014.219.014.235.014a.887.887 0 0 0 .648-.228.664.664 0 0 0 .187-.463.442.442 0 0 0-.445-.48.466.466 0 0 0-.413.176c-.173.296-.247.64-.212.98Z"/>
</svg>
